public/images/logos/nodejs.svg

<svg width="28" height="28" viewBox="0 0 28 28" fill="none" xmlns="http://www.w3.org/2000/svg">
<g clip-path="url(#clip0_123_7)">
<path d="M24.9698 20.3359V7.67287L14.0044 1.3457L3.03906 7.67287V20.3359L14.0044 26.6674L24.9698 20.3359Z" fill="#3B8739"/>
<path d="M14.0001 1.34131L24.9654 20.3315L14.0001 26.663L3.03906 7.6728L14.0001 1.34131Z" fill="#6DA75D"/>
<path d="M3.03906 20.3358L6.80245 14.1949L3.03906 7.67285V20.3358Z" fill="#55A344"/>
<path d="M21.3103 14.0044L24.9654 7.67287L14.0044 1.3457L21.3103 14.0044Z" fill="#639D57"/>
</g>
<defs>
<clipPath id="clip0_123_7">
<rect width="22" height="25.3346" fill="white" transform="translate(3 1.33276)"/>
</clipPath>
</defs>
</svg>

<svg xmlns="http://www.w3.org/2000/svg" width="28" height="28" fill="none" xmlns:v="https://vecta.io/nano"><g clip-path="url(#A)"><path d="M24.97 20.336V7.673L14.004 1.346 3.039 7.673v12.663l10.965 6.332 10.965-6.332z" fill="#3b8739"/><path d="M14 1.341l10.965 18.99L14 26.663 3.039 7.673 14 1.341z" fill="#6da75d"/><path d="M3.039 20.336l3.763-6.141-3.763-6.522v12.663z" fill="#55a344"/><path d="M21.31 14.004l3.655-6.332-10.961-6.327 7.306 12.659z" fill="#639d57"/></g><defs><clipPath id="A"><path fill="#fff" transform="translate(3 1.333)" d="M0 0h22v25.335H0z"/></clipPath></defs></svg>
